X:1
T: The Arran Boar
C:
R:Jig
Q:180
K:Em
M:6/8
L:1/16
|:E2F2E2 B2^c2d2|A2F2D2 A2F2D2|E2F2E2 B2^c2d2|F2E2F2 E6|
E2F2E2 B2^c2d2|A2F2D2 A2F2D2|E2F2E2 B2^c2d2|F2E2F2 E6|
e2f2e2 g2f2e2|d2B2G2 A2F2D2|e2f2e2 g2f2e2|^d2B2d2 e4B2|
e2f2e2 g2f2e2|d2B2G2 A2F2D2|E2F2E2 B2^c2d2|F2E2F2 E6:|
